hammer-screwdriver.svg

<svg fill="currentColor" viewBox="0 0 24 24"><path d="m16.06 13.09 5.63 5.59-3.32 3.28-5.59-5.59v-.92l2.36-2.36zm.91-2.53L16 9.6l-4.79 4.8v1.97L5.58 22 2.3 18.68l5.59-5.59h1.97l.78-.78L6.8 8.46H5.5L2.69 5.62 5.31 3l2.8 2.8v1.31L12 10.95l2.66-2.66-.96-1.01L15 5.97h-2.66l-.65-.65L15 2l.66.66v2.66L16.97 4l3.28 3.28c1.09 1.1 1.09 2.89 0 3.98l-1.97-2.01z"/></svg>

<svg  viewBox="0 0 24 24" fill="currentColor"><path  d="M16.06 13.09L21.69 18.68L18.37 21.96L12.78 16.37V15.45L15.14 13.09H16.06M16.97 10.56L16 9.6L11.21 14.4V16.37L5.58 22L2.3 18.68L7.89 13.09H9.86L10.64 12.31L6.8 8.46H5.5L2.69 5.62L5.31 3L8.11 5.8V7.11L12 10.95L14.66 8.29L13.7 7.28L15 5.97H12.34L11.69 5.32L15 2L15.66 2.66V5.32L16.97 4L20.25 7.28C21.34 8.38 21.34 10.17 20.25 11.26L18.28 9.25L16.97 10.56Z"/></svg>
